elevenfeat/templates/form/ckeditor/icons/subscript.svg

<svg width="43" height="44" viewBox="0 0 43 44" xmlns="http://www.w3.org/2000/svg"><title>subscript</title><path d="M0 0v6h10v24h6V6h10V0H0zm25 30h6v14h6V30h6v-6H25v6z" fill="#000" fill-rule="evenodd"/></svg>

<?xml version="1.0" encoding="UTF-8" standalone="no"?>
<svg width="43px" height="44px" viewBox="0 0 43 44" version="1.1" xmlns="http://www.w3.org/2000/svg" xmlns:xlink="http://www.w3.org/1999/xlink">
    <!-- Generator: Sketch 39.1 (31720) - http://www.bohemiancoding.com/sketch -->
    <title>subscript</title>
    <desc>Created with Sketch.</desc>
    <defs></defs>
    <g id="Page-1" stroke="none" stroke-width="1" fill="none" fill-rule="evenodd">
        <g id="subscript" fill="#000000">
            <path d="M0,0 L0,6 L10,6 L10,30 L16,30 L16,6 L26,6 L26,0 L0,0 L0,0 Z M25,30 L31,30 L31,44 L37,44 L37,30 L43,30 L43,24 L25,24 L25,30 L25,30 Z" id="Shape"></path>
        </g>
    </g>
</svg>
